dist/img/home/about/1.svg

<svg width="30" height="32" viewBox="0 0 30 32" fill="none" xmlns="http://www.w3.org/2000/svg">
<path d="M29.7208 16.1791C29.5468 16.0672 29.328 16.0515 29.1397 16.1374C28.6632 16.3549 28.1535 16.4652 27.6249 16.4652C26.2273 16.4652 24.9377 15.6533 24.3393 14.3966C24.2385 14.185 24.0249 14.0501 23.7905 14.0501H23.3706V7.47885C23.3706 7.14313 23.0984 6.87099 22.7627 6.87099H19.0009V5.35687C19.0009 2.40311 16.5857 0 13.617 0C12.9366 0 12.2852 0.126252 11.6853 0.356448C11.0855 0.126252 10.4341 0 9.75357 0C6.78485 0 4.36965 2.40311 4.36965 5.35687V6.87093H0.607858C0.272199 6.87093 0 7.14307 0 7.47879V27.1222C0 28.7162 1.29887 30.0131 2.89547 30.0131H19.8688C19.9075 30.0131 19.9454 30.0094 19.9822 30.0024C21.3784 30.7639 22.5796 31.0864 22.6393 31.1022C22.6901 31.1156 22.7422 31.1223 22.7944 31.1223C22.8466 31.1223 22.8988 31.1156 22.9496 31.1022C23.0208 31.0833 24.7132 30.629 26.4249 29.515C28.7637 27.9929 30 25.9712 30 23.6686V16.6904C30 16.4835 29.8948 16.2909 29.7208 16.1791ZM22.1549 8.0867V14.0501H21.7985C21.564 14.0501 21.3505 14.1849 21.2497 14.3966C20.6512 15.6532 19.3615 16.4651 17.964 16.4651C17.4354 16.4651 16.9257 16.3548 16.4492 16.1374C16.2609 16.0514 16.042 16.0672 15.8681 16.179C15.6942 16.2908 15.589 16.4835 15.589 16.6903V23.6686C15.589 25.626 16.4823 27.3803 18.1869 28.7974H4.97751V8.0867H8.23308V11.2174C8.23308 11.5531 8.50528 11.8253 8.84094 11.8253C9.17659 11.8253 9.44879 11.5531 9.44879 11.2174V8.0867H17.7852V11.2174C17.7852 11.5531 18.0574 11.8253 18.3931 11.8253C18.7287 11.8253 19.0009 11.5531 19.0009 11.2174V8.0867H22.1549ZM11.6853 1.6879C13.0137 2.38104 13.9218 3.76562 13.9218 5.35693V6.87099H9.44873V5.35687C9.44879 3.76556 10.3569 2.38104 11.6853 1.6879ZM13.617 1.21572C15.9154 1.21572 17.7852 3.07345 17.7852 5.35687V6.87093H15.1376V5.35687C15.1376 3.70228 14.3797 2.22057 13.1913 1.23711C13.3313 1.22295 13.4733 1.21572 13.617 1.21572ZM9.75357 1.21572C9.89727 1.21572 10.0393 1.22301 10.1793 1.23717C8.99089 2.22057 8.23308 3.70234 8.23308 5.35693V6.87099H5.58537V5.35687C5.58537 3.07345 7.45526 1.21572 9.75357 1.21572ZM1.21572 27.1222V8.0867H3.76179V28.7974H2.89547C1.96928 28.7974 1.21572 28.0459 1.21572 27.1222ZM28.7843 23.6687C28.7843 25.5583 27.7759 27.1768 25.7872 28.4795C24.5205 29.3092 23.2311 29.7469 22.7945 29.8812C22.3573 29.7468 21.0682 29.3091 19.8018 28.4795C17.813 27.1768 16.8047 25.5582 16.8047 23.6687V17.5424C17.1811 17.6345 17.5687 17.6808 17.964 17.6808C19.6961 17.6808 21.3045 16.7446 22.1645 15.2658H23.4246C24.2844 16.7445 25.8928 17.6808 27.6249 17.6808C28.0201 17.6808 28.4078 17.6344 28.7842 17.5424V23.6687H28.7843Z" fill="#E0191C"/>
<path d="M25.4051 20.6438C25.1486 20.4274 24.7651 20.46 24.5486 20.7165L22.5387 23.0994L21.7889 22.3539C21.5509 22.1172 21.1659 22.1182 20.9292 22.3563C20.6925 22.5944 20.6936 22.9792 20.9317 23.2159L22.1493 24.4267C22.2634 24.5402 22.4176 24.6035 22.5779 24.6035C22.5867 24.6035 22.5956 24.6033 22.6045 24.6029C22.7742 24.5955 22.933 24.5174 23.0425 24.3876L25.4778 21.5004C25.6944 21.2438 25.6617 20.8603 25.4051 20.6438Z" fill="#E0191C"/>
</svg>

<svg width="30" height="32" viewBox="0 0 30 32" fill="none" xmlns="http://www.w3.org/2000/svg"><path d="M29.72 16.18a.608.608 0 00-.58-.043 3.653 3.653 0 01-4.8-1.74.608.608 0 00-.55-.347h-.42V7.48a.608.608 0 00-.607-.608H19V5.357C19 2.403 16.586 0 13.617 0c-.68 0-1.332.126-1.932.356A5.38 5.38 0 009.754 0C6.784 0 4.37 2.403 4.37 5.357V6.87H.608A.608.608 0 000 7.479v19.643a2.896 2.896 0 002.895 2.891H19.87a.606.606 0 00.113-.01 13.107 13.107 0 002.657 1.1.608.608 0 00.31 0 13.285 13.285 0 003.476-1.588C28.764 27.993 30 25.971 30 23.669V16.69c0-.207-.105-.4-.28-.51zm-7.565-8.093v5.963h-.357a.608.608 0 00-.548.347 3.654 3.654 0 01-4.8 1.74.608.608 0 00-.861.553v6.979c0 1.957.893 3.711 2.598 5.128H4.977V8.087h3.256v3.13a.608.608 0 001.216 0v-3.13h8.336v3.13a.608.608 0 001.216 0v-3.13h3.154zm-10.47-6.4a4.142 4.142 0 012.237 3.67V6.87H9.449V5.357c0-1.591.908-2.976 2.236-3.67zm1.932-.471c2.298 0 4.168 1.857 4.168 4.14v1.515h-2.647V5.357a5.338 5.338 0 00-1.947-4.12 4.23 4.23 0 01.426-.021zm-3.863 0c.143 0 .285.007.425.021a5.338 5.338 0 00-1.946 4.12V6.87H5.585V5.357c0-2.284 1.87-4.141 4.169-4.141zM1.216 27.122V8.087h2.546v20.71h-.867a1.68 1.68 0 01-1.68-1.675zm27.568-3.453c0 1.89-1.008 3.508-2.997 4.81a12.43 12.43 0 01-2.992 1.402 12.422 12.422 0 01-2.993-1.401c-1.989-1.303-2.997-2.922-2.997-4.811v-6.127a4.88 4.88 0 005.36-2.277h1.26a4.88 4.88 0 005.36 2.277v6.127z" fill="#E0191C"/><path d="M25.405 20.644a.608.608 0 00-.856.073l-2.01 2.382-.75-.745a.608.608 0 10-.857.862l1.217 1.21a.608.608 0 00.893-.038l2.436-2.888a.608.608 0 00-.073-.856z" fill="#E0191C"/></svg>
